X:6
T:6 The Gypsies Hornpipe
I:abc2nwc
M:C
L:1/8
K:C
z2|CE GA c2ce|dc BA G2G2|ce gc' c'g fe|dc BA GF ED|
CE Gc c2ce|dc BA G2de|fe dc ed cB|c2c2c2:|
e2|ge ge ba gf|fe dc d2e2|fd fd gf ed|ed cB c2GE|
CE Gc c2ce|dc BA G2de|fe dc ed cB|c2c2c2:|

